X: 23502
T: Liam Childs
R: slip jig
M: 9/8
K: Cmajor
C2 D|:E3 EDC EGG|D3 DCD ECG|C3 CDC CA,G,|EDD DED C2 D|
E3 EDC EGG|D3 DCD ECG|C3 CDC CA,G,|EDD DED C3:|
|:cAG E3 EDC|cAG EDC A,2 C|cAG E2 D EGc|A2 G Ace d2 e|
cAG E3 EDC|cAG EDC A,2 C|D3 DED DCA,|AGE DED C3:|

